resources/svg/show-source.svg

<svg xmlns="http://www.w3.org/2000/svg" fill="none" viewBox="0 0 14 14"><path fill="currentColor" fill-rule="evenodd" d="M6.62497 0C2.9661 0 0 2.9661 0 6.62497C0 10.2838 2.9661 13.2499 6.62497 13.2499C8.09364 13.2499 9.45069 12.772 10.5491 11.9632L12.2825 13.6967C12.6731 14.0872 13.3062 14.0872 13.6968 13.6967C14.0873 13.3062 14.0873 12.673 13.6968 12.2825L11.9633 10.549C12.772 9.45063 13.2499 8.09361 13.2499 6.62497C13.2499 2.9661 10.2838 0 6.62497 0ZM4.24297 5.78331C4.48705 5.53923 4.48705 5.14351 4.24297 4.89943C3.99889 4.65535 3.60316 4.65535 3.35909 4.89943L1.8188 6.43971C1.57472 6.68379 1.57472 7.07952 1.8188 7.3236L3.35909 8.86388C3.60316 9.10796 3.99889 9.10796 4.24297 8.86388C4.48705 8.61981 4.48705 8.22408 4.24297 7.98L3.14463 6.88166L4.24297 5.78331ZM9.00679 4.89943C9.25087 4.65535 9.6466 4.65535 9.89067 4.89943L11.431 6.43971C11.675 6.68379 11.675 7.07952 11.431 7.3236L9.89067 8.86388C9.6466 9.10796 9.25087 9.10796 9.00679 8.86388C8.76271 8.61981 8.76271 8.22408 9.00679 7.98L10.1051 6.88166L9.00679 5.78331C8.76271 5.53923 8.76271 5.14351 9.00679 4.89943ZM7.98795 4.51222C8.0971 4.18475 7.92013 3.8308 7.59266 3.72165C7.2652 3.61249 6.91125 3.78947 6.8021 4.11693L5.26181 8.73779C5.15265 9.06526 5.32963 9.4192 5.65709 9.52836C5.98456 9.63751 6.33851 9.46054 6.44766 9.13308L7.98795 4.51222Z" clip-rule="evenodd"></path></svg>

<svg xmlns="http://www.w3.org/2000/svg" fill="none" viewBox="0 0 14 14"><path fill="currentColor" fill-rule="evenodd" d="M6.625 0a6.625 6.625 0 1 0 3.924 11.963l1.734 1.734a1 1 0 0 0 1.414-1.414l-1.734-1.734A6.625 6.625 0 0 0 6.625 0ZM4.243 5.783a.625.625 0 1 0-.884-.884L1.82 6.44a.625.625 0 0 0 0 .885l1.54 1.54a.625.625 0 1 0 .884-.884L3.145 6.882l1.098-1.099ZM9.007 4.9a.625.625 0 0 1 .884 0l1.54 1.54a.625.625 0 0 1 0 .885l-1.54 1.54a.625.625 0 1 1-.884-.884l1.098-1.098-1.098-1.099a.625.625 0 0 1 0-.884Zm-1.019-.387a.625.625 0 0 0-1.186-.395l-1.54 4.62a.625.625 0 1 0 1.186.396l1.54-4.62Z" clip-rule="evenodd"/></svg>
